packages/foundations/assets/icons/functional/images/business & payment/gift_16.svg

<svg width="16" height="16" viewBox="0 0 16 16" fill="none" xmlns="http://www.w3.org/2000/svg">
<g clip-path="url(#clip0_184_65)">
<path fill-rule="evenodd" clip-rule="evenodd" d="M9.20198 1.9985C10.076 1.9985 10.794 2.7165 10.794 3.6065C10.794 3.9025 10.716 4.1685 10.576 4.4025H12.605C13.588 4.4025 14.4 5.2145 14.4 6.1975V12.1915C14.4 13.1285 13.729 14.0015 12.605 14.0015H3.39498C2.91746 13.9978 2.46077 13.8055 2.12451 13.4664C1.78825 13.1273 1.5997 12.669 1.59998 12.1915V6.1985C1.59998 5.2155 2.42698 4.4035 3.39498 4.4035H5.42498C5.27959 4.16356 5.20344 3.88806 5.20498 3.6075C5.20498 2.7175 5.92398 1.9995 6.79798 1.9995C7.28198 1.9995 7.70298 2.2175 7.99998 2.5455C8.15048 2.37478 8.33536 2.2378 8.54251 2.14353C8.74966 2.04926 8.97439 1.99984 9.20198 1.9985ZM7.20398 9.1945H3.20798V12.3945H7.20398V9.1945ZM12.792 9.1945H8.79598V12.3945H12.792V9.1945ZM7.20398 5.9945H3.20798V7.6025H7.20398V5.9945ZM12.792 5.9945H8.79598V7.6025H12.792V5.9945Z" fill="#1A1C1F"/>
</g>
<defs>
<clipPath id="clip0_184_65">
<rect width="16" height="16" fill="white"/>
</clipPath>
</defs>
</svg>

<svg xmlns="http://www.w3.org/2000/svg" width="16" height="16" fill="none"><g clip-path="url(#a)"><path fill="#1A1C1F" fill-rule="evenodd" d="M9.202 1.999c.874 0 1.592.717 1.592 1.608 0 .295-.078.561-.218.795h2.029c.983 0 1.795.813 1.795 1.795v5.994c0 .938-.671 1.81-1.795 1.81h-9.21a1.81 1.81 0 0 1-1.795-1.81V6.198c0-.983.827-1.795 1.795-1.795h2.03a1.5 1.5 0 0 1-.22-.795c0-.89.719-1.608 1.593-1.608.484 0 .905.217 1.202.546a1.62 1.62 0 0 1 1.202-.547M7.204 9.194H3.208v3.2h3.996zm5.588 0H8.796v3.2h3.996zm-5.588-3.2H3.208v1.609h3.996zm5.588 0H8.796v1.609h3.996z" clip-rule="evenodd"/></g><defs><clipPath id="a"><path fill="#fff" d="M0 0h16v16H0z"/></clipPath></defs></svg>
